brandFactory_export/2.Regular/Feliz felicidad emoji_2Regular.svg

<?xml version="1.0" encoding="UTF-8"?>
<svg width="24px" height="24px" viewBox="0 0 24 24" version="1.1" xmlns="http://www.w3.org/2000/svg" xmlns:xlink="http://www.w3.org/1999/xlink">
    <title>2.Regular/Feliz felicidad emoji_2Regular</title>
    <g id="Symbols" stroke="none" stroke-width="1" fill="none" fill-rule="evenodd">
        <g id="2.Regular/Feliz-felicidad-emoji_2Regular" fill="#5CB615" fill-rule="nonzero">
            <path d="M18,13.9361345 C18.2722689,13.6336134 18.7394958,13.610084 19.0420168,13.8857143 C19.3411765,14.1579832 19.3680672,14.6218487 19.0957983,14.9243697 C18.9848739,15.0453782 16.3731092,17.892437 11.892437,17.9428571 C11.8756303,17.9428571 11.8117647,17.9462185 11.707563,17.9462185 C10.8235294,17.9462185 7.03529412,17.7747899 4.52773109,14.9680672 C4.25546218,14.6621849 4.28235294,14.1983193 4.58487395,13.9260504 C4.8907563,13.6537815 5.35462185,13.6806723 5.62689076,13.9865546 C7.9697479,16.605042 11.8151261,16.4705882 11.8521008,16.4705882 C15.687395,16.4235294 17.9764706,13.9596639 18,13.9361345 Z M11.8084034,22.1478992 C18.7630252,22.1478992 22.1478992,18.7663866 22.1478992,11.8151261 C22.1478992,4.8605042 18.7663866,1.4789916 11.8084034,1.4789916 C4.85714286,1.4789916 1.47563025,4.8605042 1.47563025,11.8151261 C1.47563025,18.7663866 4.85714286,22.1478992 11.8084034,22.1478992 Z M11.8084034,0 C19.2705882,0 23.6235294,3.76806723 23.6235294,11.8151261 C23.6235294,19.8621849 19.2705882,23.6235294 11.8084034,23.6235294 C4.34621849,23.6235294 0,19.8621849 0,11.8151261 C0,3.76806723 4.34621849,0 11.8084034,0 Z M8.22857143,10.0705882 C7.80168067,10.0705882 7.44537815,9.93613445 7.19663866,9.68403361 C6.9512605,9.43529412 6.8302521,9.09243697 6.8302521,8.66890756 C6.8302521,7.80168067 7.36806723,7.26386555 8.22857143,7.26386555 C9.09243697,7.26386555 9.62689076,7.80168067 9.62689076,8.66890756 C9.62689076,9.09579832 9.50252101,9.43529412 9.2605042,9.68403361 C9.01176471,9.93277311 8.65546218,10.0705882 8.22857143,10.0705882 L8.22857143,10.0705882 Z M15.394958,10.0705882 C14.9680672,10.0705882 14.6117647,9.93613445 14.3630252,9.68403361 C14.1176471,9.43529412 13.9932773,9.09243697 13.9932773,8.66890756 C13.9932773,7.80168067 14.5310924,7.26386555 15.3915966,7.26386555 C16.2554622,7.26386555 16.789916,7.80168067 16.789916,8.66890756 C16.789916,9.09243697 16.6655462,9.43529412 16.4235294,9.68403361 C16.1781513,9.93277311 15.8218487,10.0705882 15.394958,10.0705882 L15.394958,10.0705882 Z" id="Feliz-felicidad-emoji_2Regular"></path>
        </g>
    </g>
</svg>

<svg width="24" height="24" viewBox="0 0 24 24" xmlns="http://www.w3.org/2000/svg"><path d="M18 13.936a.737.737 0 011.096.988c-.111.121-2.723 2.968-7.204 3.019-.016 0-.08.003-.184.003-.884 0-4.673-.171-7.18-2.978a.736.736 0 111.1-.982c2.342 2.619 6.187 2.485 6.224 2.485 3.835-.047 6.124-2.511 6.148-2.535zm-6.192 8.212c6.955 0 10.34-3.382 10.34-10.333 0-6.954-3.382-10.336-10.34-10.336-6.95 0-10.332 3.382-10.332 10.336 0 6.951 3.381 10.333 10.332 10.333zm0-22.148c7.463 0 11.816 3.768 11.816 11.815S19.27 23.624 11.808 23.624C4.346 23.624 0 19.862 0 11.815 0 3.768 4.346 0 11.808 0zm-3.58 10.07c-.426 0-.783-.134-1.031-.386-.246-.249-.367-.592-.367-1.015 0-.867.538-1.405 1.399-1.405.863 0 1.398.538 1.398 1.405 0 .427-.124.766-.366 1.015-.25.249-.606.387-1.032.387zm7.167 0c-.427 0-.783-.134-1.032-.386-.245-.249-.37-.592-.37-1.015 0-.867.538-1.405 1.399-1.405.863 0 1.398.538 1.398 1.405 0 .423-.124.766-.366 1.015-.246.249-.602.387-1.029.387z" fill="#5CB615" fill-rule="nonzero"/></svg>
